svg/u1f9af.svg

<svg viewBox="0 0 128 128" xmlns="http://www.w3.org/2000/svg">
  <g id="Layer_4">
    <g>
      <rect height="143.32" fill="#E0E0E0" transform="matrix(0.7071 0.7071 -0.7071 0.7071 61.6461 -32.1926)" width="10.03" x="64.67" y="-13.34"/>
      <path d="M97.72,37.37c0,0-0.13-2.82-2.2-4.89c-2.07-2.07-4.89-2.2-4.89-2.2L116.81,4.1 c0,0,1.89-0.8,4.89,2.2c3.01,3.01,2.2,4.89,2.2,4.89L97.72,37.37z" fill="#646464"/>
      <path d="M22.56,112.54l-7.09-7.09l27.65-27.65c0,0,2.79-0.52,5.21,1.89c2.41,2.41,1.89,5.21,1.89,5.21 L22.56,112.54z" fill="#F44336"/>
      <path d="M121.7,6.3c-3.01-3.01-4.89-2.2-4.89-2.2s3.38,0.56,4.26,2.82 c0.88,2.27-0.55,4.31-0.55,4.31c-3.09,3.09-65.53,65.53-90.06,90.06c0,0-3.34,3.3-7.04,2.29c-3.31-0.9-3.66-2.43-3.66-2.43 l-2.9,2.9l1.36,5.74l4.33,2.73l99.05-99.05l0.01,0.03l2.31-2.31C123.9,11.19,124.71,9.31,121.7,6.3z" opacity="0.33" fill="#2686C6"/>
      <path d="M121.06,6.92c0.88,2.27-0.55,4.31-0.55,4.31c-1.16,1.16-10.71,10.71-23.49,23.49 c0,0,0.61,0.8,0.69,2.62l23.87-23.87l0.01,0.03l2.31-2.31c0,0,0.8-1.89-2.2-4.89s-4.89-2.2-4.89-2.2S120.19,4.65,121.06,6.92z" fill="#444444"/>
      <circle cx="14.15" cy="113.85" r="10.15" fill="#E0E0E0"/>
      <path d="M23.65,110.28c0.21,2.7-0.72,5.48-2.79,7.55c-3.76,3.76-9.86,3.76-13.62,0 c-1.9-1.9-2.84-4.4-2.82-6.9c-1.03,3.46-0.19,7.36,2.55,10.1c3.97,3.97,10.39,3.97,14.36,0 C24.24,118.12,25.01,113.89,23.65,110.28z" opacity="0.33" fill="#2686C6"/>
      <path d="M118.92,44.61c3.99-6.72,4.76-22.58-0.46-35.47c-0.37-0.91-1.39-1.33-2.29-0.97 c-0.9,0.36-1.33,1.39-0.97,2.29c5.2,12.84,3.71,27.27,0.69,32.35c-0.84,1.41-1.47,1.59-1.64,1.61c-0.47,0.05-0.79-0.05-1.11-0.42 c-2.24-2.45-2.08-11.72-0.74-21.31c-1.23,1.23-2.74,2.74-4.02,4.02c-0.15,1.48-0.28,3.01-0.36,4.55 c-0.43,7.84,0.4,12.78,2.53,15.11c0.06,0.06,0.11,0.12,0.17,0.18c1.06,1.06,2.42,1.53,3.93,1.36 C115.78,47.79,117.43,47.11,118.92,44.61z" fill="#90A4AE"/>
    </g>
  </g>
</svg>

<svg viewBox="0 0 128 128" xmlns="http://www.w3.org/2000/svg">
  <defs/>
  <path d="M116.807,4.103 L123.899,11.195 L22.558,112.537 L15.465,105.444 L116.807,4.103 Z" fill="#E0E0E0"/>
  <path d="M97.72,37.37 C97.72,37.37 97.59,34.55 95.52,32.48 C93.45,30.41 90.63,30.28 90.63,30.28 L116.81,4.1 C116.81,4.1 118.7,3.3 121.7,6.3 C124.71,9.31 123.9,11.19 123.9,11.19 L97.72,37.37 Z" fill="#646464"/>
  <path d="M22.56,112.54 L15.47,105.45 L43.12,77.8 C43.12,77.8 45.91,77.28 48.33,79.69 C50.74,82.1 50.22,84.9 50.22,84.9 L22.56,112.54 Z" fill="#F44336"/>
  <path d="M121.7,6.3 C118.69,3.29 116.81,4.1 116.81,4.1 C116.81,4.1 120.19,4.66 121.07,6.92 C121.95,9.19 120.52,11.23 120.52,11.23 C117.43,14.32 54.99,76.76 30.46,101.29 C30.46,101.29 27.12,104.59 23.42,103.58 C20.11,102.68 19.76,101.15 19.76,101.15 L16.86,104.05 L18.22,109.79 L22.55,112.52 L121.6,13.47 L121.61,13.5 L123.92,11.19 C123.9,11.19 124.71,9.31 121.7,6.3 Z" fill="#2686C6" opacity="0.33"/>
  <path d="M121.06,6.92 C121.94,9.19 120.51,11.23 120.51,11.23 C119.35,12.39 109.8,21.94 97.02,34.72 C97.02,34.72 97.63,35.52 97.71,37.34 L121.58,13.47 L121.59,13.5 L123.9,11.19 C123.9,11.19 124.7,9.3 121.7,6.3 C118.7,3.3 116.81,4.1 116.81,4.1 C116.81,4.1 120.19,4.65 121.06,6.92 Z" fill="#444444"/>
  <path d="M24.3,113.85 A10.15 10.15 0 1 1 4,113.85 A10.15 10.15 0 1 1 24.3,113.85 Z" fill="#E0E0E0"/>
  <path d="M23.65,110.28 C23.86,112.98 22.93,115.76 20.86,117.83 C17.1,121.59 11,121.59 7.24,117.83 C5.34,115.93 4.4,113.43 4.42,110.93 C3.39,114.39 4.23,118.29 6.97,121.03 C10.94,125 17.36,125 21.33,121.03 C24.24,118.12 25.01,113.89 23.65,110.28 Z" fill="#2686C6" opacity="0.33"/>
  <path d="M118.92,44.61 C122.91,37.89 123.68,22.03 118.46,9.14 C118.09,8.23 117.07,7.81 116.17,8.17 C115.27,8.53 114.84,9.56 115.2,10.46 C120.4,23.3 118.91,37.73 115.89,42.81 C115.05,44.22 114.42,44.4 114.25,44.42 C113.78,44.47 113.46,44.37 113.14,44 C110.9,41.55 111.06,32.28 112.4,22.69 C111.17,23.92 109.66,25.43 108.38,26.71 C108.23,28.19 108.1,29.72 108.02,31.26 C107.59,39.1 108.42,44.04 110.55,46.37 C110.61,46.43 110.66,46.49 110.72,46.55 C111.78,47.61 113.14,48.08 114.65,47.91 C115.78,47.79 117.43,47.11 118.92,44.61 Z" fill="#90A4AE"/>
</svg>
